tools/download-figma-icons/icons/outlined-medium/person-folder.svg

<svg width="24" height="24" viewBox="0 0 24 24" fill="none" xmlns="http://www.w3.org/2000/svg">
<path fill-rule="evenodd" clip-rule="evenodd" d="M20.25 22.5C20.664 22.5 21 22.164 21 21.75V2.25C21 1.836 20.664 1.5 20.25 1.5H5.25C4.836 1.5 4.5 1.836 4.5 2.25V4.5H5.25C5.66475 4.5 6 4.83525 6 5.25C6 5.66475 5.66475 6 5.25 6H4.5V9H5.25C5.66475 9 6 9.33525 6 9.75C6 10.1648 5.66475 10.5 5.25 10.5H4.5V13.5H5.25C5.66475 13.5 6 13.8352 6 14.25C6 14.6648 5.66475 15 5.25 15H4.5V18H5.25C5.66475 18 6 18.3353 6 18.75C6 19.1647 5.66475 19.5 5.25 19.5H4.5V21.75C4.5 22.164 4.836 22.5 5.25 22.5H20.25ZM5.25 0H20.25C21.4905 0 22.5 1.0095 22.5 2.25V21.75C22.5 22.9905 21.4905 24 20.25 24H5.25C4.0095 24 3 22.9905 3 21.75V19.5H2.25C1.83525 19.5 1.5 19.1647 1.5 18.75C1.5 18.3353 1.83525 18 2.25 18H3V15H2.25C1.83525 15 1.5 14.6648 1.5 14.25C1.5 13.8352 1.83525 13.5 2.25 13.5H3V10.5H2.25C1.83525 10.5 1.5 10.1648 1.5 9.75C1.5 9.33525 1.83525 9 2.25 9H3V6H2.25C1.83525 6 1.5 5.66475 1.5 5.25C1.5 4.83525 1.83525 4.5 2.25 4.5H3V2.25C3 1.0095 4.0095 0 5.25 0ZM14.1721 11.7638C15.3826 11.9392 16.3899 12.8325 16.6816 14.0633L17.2269 16.3177C17.3461 16.7917 16.9951 17.25 16.5166 17.25H8.98289C8.50514 17.25 8.15414 16.7917 8.27339 16.3177L8.81114 14.0633C9.10964 12.8325 10.1176 11.9392 11.3274 11.7638C10.5879 11.274 10.0959 10.4333 10.0959 9.47025C10.0959 7.965 11.2831 6.75 12.7539 6.75C14.2171 6.75 15.4044 7.965 15.4044 9.47025C15.4044 10.4333 14.9124 11.274 14.1721 11.7638Z" fill="black"/>
</svg>

<svg xmlns="http://www.w3.org/2000/svg" width="24" height="24" fill="none" viewBox="0 0 24 24"><path fill="currentColor" fill-rule="evenodd" d="M20.25 22.5a.75.75 0 0 0 .75-.75V2.25a.75.75 0 0 0-.75-.75h-15a.75.75 0 0 0-.75.75V4.5h.75a.75.75 0 1 1 0 1.5H4.5v3h.75a.75.75 0 1 1 0 1.5H4.5v3h.75a.75.75 0 1 1 0 1.5H4.5v3h.75a.75.75 0 1 1 0 1.5H4.5v2.25c0 .414.336.75.75.75zM5.25 0h15c1.24 0 2.25 1.01 2.25 2.25v19.5c0 1.24-1.01 2.25-2.25 2.25h-15C4.01 24 3 22.99 3 21.75V19.5h-.75a.75.75 0 1 1 0-1.5H3v-3h-.75a.75.75 0 1 1 0-1.5H3v-3h-.75a.75.75 0 1 1 0-1.5H3V6h-.75a.75.75 0 1 1 0-1.5H3V2.25C3 1.01 4.01 0 5.25 0m8.922 11.764a3.02 3.02 0 0 1 2.51 2.3l.545 2.254a.743.743 0 0 1-.71.932H8.983a.743.743 0 0 1-.71-.932l.538-2.255a3.04 3.04 0 0 1 2.516-2.3 2.74 2.74 0 0 1-1.231-2.293c0-1.505 1.187-2.72 2.658-2.72 1.463 0 2.65 1.215 2.65 2.72 0 .963-.492 1.804-1.232 2.294" clip-rule="evenodd"/></svg>
